assets/icon-star.svg

<svg
  class="icon icon-accordion icon-star"

  focusable="false"
  xmlns="http://www.w3.org/2000/svg"


  viewBox="0 0 20 20"
>
  <path d="M10 2.62639L8.54072 7.33639C8.34848 7.95687 7.79714 8.37696 7.17504 8.37696H2.45272L6.27316 11.2879C6.77645 11.6714 6.98704 12.3511 6.7948 12.9716L5.33552 17.6816L9.15596 14.7706C9.65925 14.3872 10.3408 14.3872 10.844 14.7706L14.6645 17.6816L13.2052 12.9716C13.013 12.3511 13.2236 11.6714 13.7268 11.2879L17.5473 8.37696H12.825C12.2029 8.37696 11.6515 7.95687 11.4593 7.33639L10 2.62639ZM10.4552 0.846855C10.3119 0.384382 9.68806 0.384382 9.54477 0.846855L7.63027 7.02616C7.56619 7.23298 7.38241 7.37301 7.17504 7.37301H0.979572C0.515888 7.37301 0.323098 7.99527 0.698226 8.28109L5.71047 12.1001C5.87823 12.2279 5.94843 12.4545 5.88435 12.6613L3.96984 18.8406C3.82656 19.3031 4.33129 19.6877 4.70642 19.4019L9.71865 15.5828C9.88642 15.455 10.1136 15.455 10.2813 15.5828L15.2936 19.4019C15.6687 19.6877 16.1734 19.3031 16.0302 18.8406L14.1157 12.6613C14.0516 12.4545 14.1218 12.2279 14.2895 12.1001L19.3018 8.28109C19.6769 7.99527 19.4841 7.37301 19.0204 7.37301H12.825C12.6176 7.37301 12.4338 7.23298 12.3697 7.02616L10.4552 0.846855Z" fill-rule="evenodd" />
</svg>

<svg xmlns="http://www.w3.org/2000/svg" class="icon icon-accordion icon-star" viewBox="0 0 20 20"><path fill-rule="evenodd" d="m10 2.626-1.46 4.71c-.192.62-.743 1.041-1.365 1.041H2.453l3.82 2.91c.503.384.714 1.064.522 1.685l-1.46 4.71 3.821-2.911a1.38 1.38 0 0 1 1.688 0l3.82 2.91-1.459-4.71c-.192-.62.019-1.3.522-1.683l3.82-2.911h-4.722c-.622 0-1.173-.42-1.366-1.04zm.455-1.78a.472.472 0 0 0-.91 0L7.63 7.027a.48.48 0 0 1-.455.347H.98c-.464 0-.657.622-.282.908l5.012 3.82a.52.52 0 0 1 .174.56l-1.914 6.18c-.143.462.361.847.736.56l5.013-3.818a.46.46 0 0 1 .562 0l5.013 3.819c.375.286.88-.099.736-.561l-1.914-6.18a.52.52 0 0 1 .174-.56l5.012-3.82c.375-.286.182-.908-.282-.908h-6.195a.48.48 0 0 1-.455-.347z"/></svg>
